// clase 4

s.boot;
s.quit;
s.meter;
s.scope;

TempoClock.tempo=60/60;
LinkClock.help;

// buffers

(
~b1
~b2
~b3
~b4
);

// synthes

(
SynthDef(\s1);

);

// secuencias

(
~sec1
);

(
~sec2
);

(
~sec3
);

(
~sec4
);
